assets/icons/24px/stroke/store-24px.svg

<svg width="24" height="24" viewBox="0 0 24 24" fill="none" xmlns="http://www.w3.org/2000/svg">
<path fill-rule="evenodd" clip-rule="evenodd" d="M8 10H20.5L20.5 17.0658C20.5001 17.9523 20.5001 18.7162 20.4179 19.3278C20.3297 19.9833 20.131 20.6117 19.6213 21.1214C19.1117 21.631 18.4833 21.8298 17.8278 21.9179C17.2161 22.0001 16.4523 22.0001 15.5658 22H12.9342C12.0477 22.0001 11.2839 22.0001 10.6722 21.9179C10.0167 21.8298 9.38834 21.631 8.87868 21.1214C8.36902 20.6117 8.17027 19.9833 8.08214 19.3278C7.9999 18.7162 7.99995 17.9523 8 17.0659C8 17.044 8 17.022 8 17L8 10ZM10 12L10 17C10 17.9711 10.0021 18.5988 10.0643 19.0613C10.1226 19.4951 10.2168 19.631 10.2929 19.7071C10.369 19.7833 10.505 19.8774 10.9387 19.9357C11.4012 19.9979 12.0289 20 13 20H15.5C16.4711 20 17.0988 19.9979 17.5613 19.9357C17.995 19.8774 18.131 19.7833 18.2071 19.7071C18.2832 19.631 18.3774 19.4951 18.4357 19.0613C18.4979 18.5988 18.5 17.9711 18.5 17L18.5 12H10ZM4.5 10.9091C5.05228 10.9091 5.5 11.3568 5.5 11.9091V21C5.5 21.5523 5.05228 22 4.5 22C3.94772 22 3.5 21.5523 3.5 21V11.9091C3.5 11.3568 3.94772 10.9091 4.5 10.9091Z" fill="white"/>
<path fill-rule="evenodd" clip-rule="evenodd" d="M7.56751 2C7.58364 2 7.59982 2 7.61606 2L16.4325 2C17.0256 1.99997 17.5475 1.99994 17.981 2.04649C18.4504 2.09689 18.9052 2.20883 19.334 2.48929C19.7628 2.76975 20.0477 3.14158 20.282 3.55134C20.4984 3.92986 20.7076 4.40802 20.9453 4.95142L21.6784 6.62723C21.6824 6.63624 21.6863 6.64518 21.6902 6.65404C21.7485 6.7872 21.7999 6.90469 21.8417 7.02825C21.9188 7.25599 21.9682 7.49216 21.9889 7.7317C22.0001 7.86165 22.0001 7.98989 22 8.13526C22 8.14494 22 8.15471 22 8.16455C22 8.21172 22.0001 8.25844 22.0001 8.3047C22.001 8.94118 22.0017 9.49162 21.84 9.96669C21.54 10.8479 20.8479 11.54 19.9667 11.84C19.4916 12.0017 18.9412 12.001 18.3047 12.0001C18.2584 12.0001 18.2117 12 18.1645 12H5.83545C5.78828 12 5.74156 12.0001 5.6953 12.0001C5.05882 12.001 4.50838 12.0017 4.03331 11.84C3.15205 11.54 2.45998 10.8479 2.16001 9.96669C1.99831 9.49162 1.99903 8.94118 1.99988 8.30471C1.99994 8.25844 2 8.21173 2 8.16455C2 8.15471 1.99999 8.14495 1.99999 8.13527C1.99994 7.9899 1.9999 7.86165 2.01112 7.7317C2.0318 7.49216 2.08121 7.25599 2.15827 7.02825C2.20007 6.90469 2.25152 6.78721 2.30983 6.65405C2.31372 6.64518 2.31763 6.63624 2.32157 6.62723L3.03527 4.99591C3.04178 4.98103 3.04827 4.9662 3.05473 4.95142C3.29244 4.40802 3.5016 3.92986 3.71802 3.55134C3.9523 3.14158 4.23716 2.76975 4.66598 2.48929C5.09481 2.20883 5.54964 2.09689 6.01896 2.04649C6.45248 1.99994 6.97439 1.99997 7.56751 2ZM6.23251 4.03506C5.94248 4.06621 5.83061 4.11737 5.76068 4.1631C5.69075 4.20883 5.59905 4.29082 5.45426 4.54405C5.29749 4.81823 5.13057 5.19646 4.86759 5.79755L4.15389 7.42886C4.07759 7.60327 4.06341 7.63777 4.05275 7.66927C4.02707 7.74519 4.0106 7.82391 4.00371 7.90376C4.00084 7.93689 4 7.97419 4 8.16455C4 9.02368 4.01344 9.20503 4.05334 9.32223C4.15332 9.61599 4.38402 9.84668 4.67777 9.94667C4.79497 9.98656 4.97632 10 5.83545 10H18.1645C19.0237 10 19.205 9.98656 19.3222 9.94667C19.616 9.84668 19.8467 9.61599 19.9467 9.32223C19.9866 9.20503 20 9.02368 20 8.16455C20 7.97419 19.9992 7.93689 19.9963 7.90376C19.9894 7.82391 19.9729 7.74519 19.9472 7.66927C19.9366 7.63777 19.9224 7.60327 19.8461 7.42886L19.1324 5.79755C18.8694 5.19646 18.7025 4.81823 18.5457 4.54405C18.4009 4.29082 18.3092 4.20883 18.2393 4.1631C18.1694 4.11737 18.0575 4.06621 17.7675 4.03506C17.4535 4.00134 17.04 4 16.3839 4H7.61606C6.95996 4 6.54654 4.00134 6.23251 4.03506Z" fill="white"/>
<path fill-rule="evenodd" clip-rule="evenodd" d="M7 7C7.55228 7 8 7.44772 8 8V11C8 11.5523 7.55228 12 7 12C6.44772 12 6 11.5523 6 11V8C6 7.44772 6.44772 7 7 7ZM12 7C12.5523 7 13 7.44772 13 8V11C13 11.5523 12.5523 12 12 12C11.4477 12 11 11.5523 11 11V8C11 7.44772 11.4477 7 12 7ZM17 7C17.5523 7 18 7.44772 18 8V11C18 11.5523 17.5523 12 17 12C16.4477 12 16 11.5523 16 11V8C16 7.44772 16.4477 7 17 7Z" fill="white"/>
</svg>

<svg width="24" height="24" fill="none" xmlns="http://www.w3.org/2000/svg"><path fill-rule="evenodd" clip-rule="evenodd" d="M8 10h12.5v7.066c0 .886 0 1.65-.082 2.262-.088.655-.287 1.284-.797 1.793-.51.51-1.138.709-1.793.797-.612.082-1.376.082-2.262.082h-2.632c-.886 0-1.65 0-2.262-.082-.655-.088-1.284-.287-1.793-.797-.51-.51-.709-1.138-.797-1.793C8 18.716 8 17.952 8 17.066V10zm2 2v5c0 .971.002 1.599.064 2.061.059.434.153.57.229.646.076.076.212.17.646.229.462.062 1.09.064 2.061.064h2.5c.971 0 1.599-.002 2.061-.064.434-.059.57-.153.646-.229.076-.076.17-.212.229-.646.062-.462.064-1.09.064-2.061v-5H10zm-5.5-1.09a1 1 0 0 1 1 1V21a1 1 0 1 1-2 0v-9.09a1 1 0 0 1 1-1z" fill="#fff"/><path fill-rule="evenodd" clip-rule="evenodd" d="M7.568 2h8.865c.593 0 1.114 0 1.548.046.47.05.924.163 1.353.443.429.28.714.653.948 1.062.216.379.426.857.663 1.4l.733 1.676.012.027c.058.133.11.25.152.374.077.228.126.464.147.704.011.13.011.258.011.403v.17c.001.636.002 1.187-.16 1.662a3 3 0 0 1-1.873 1.873c-.475.162-1.026.161-1.662.16H5.695c-.636.001-1.187.002-1.662-.16A3 3 0 0 1 2.16 9.967C1.998 9.492 1.999 8.94 2 8.305v-.14-.03c0-.145 0-.273.011-.403a3 3 0 0 1 .147-.704c.042-.123.094-.24.152-.374l.012-.027.713-1.631.02-.045c.237-.543.447-1.021.663-1.4.234-.41.52-.781.948-1.062.429-.28.884-.392 1.353-.443C6.452 2 6.974 2 7.568 2zM6.233 4.035c-.29.031-.402.082-.472.128-.07.046-.162.128-.307.381-.157.274-.323.652-.586 1.254l-.714 1.63c-.076.175-.09.21-.101.241a1 1 0 0 0-.05.235c-.002.033-.003.07-.003.26 0 .86.013 1.041.053 1.158a1 1 0 0 0 .625.625c.117.04.298.053 1.157.053h12.33c.859 0 1.04-.013 1.157-.053a1 1 0 0 0 .625-.625c.04-.117.053-.298.053-1.157 0-.19 0-.228-.004-.261a1 1 0 0 0-.049-.235 3.495 3.495 0 0 0-.1-.24l-.715-1.631c-.263-.602-.43-.98-.586-1.254-.145-.253-.237-.335-.307-.38-.07-.047-.181-.098-.472-.129C17.453 4.001 17.04 4 16.384 4H7.616c-.656 0-1.07.001-1.383.035z" fill="#fff"/><path fill-rule="evenodd" clip-rule="evenodd" d="M7 7a1 1 0 0 1 1 1v3a1 1 0 1 1-2 0V8a1 1 0 0 1 1-1zm5 0a1 1 0 0 1 1 1v3a1 1 0 1 1-2 0V8a1 1 0 0 1 1-1zm5 0a1 1 0 0 1 1 1v3a1 1 0 1 1-2 0V8a1 1 0 0 1 1-1z" fill="#fff"/></svg>
